assets/socials/instagram.svg

<svg version="1.1" xmlns="http://www.w3.org/2000/svg" xmlns:xlink="http://www.w3.org/1999/xlink" width="640px" height="640px" viewBox="0,0,256,256"><g fill="#2c2c2c" fill-rule="nonzero" stroke="none" stroke-width="1" stroke-linecap="butt" stroke-linejoin="miter" stroke-miterlimit="10" stroke-dasharray="" stroke-dashoffset="0" font-family="none" font-weight="none" font-size="none" text-anchor="none" style="mix-blend-mode: normal"><g transform="translate(-0.1,0.04) scale(0.4,0.4)"><path d="M320.3,205c-63.5,-0.2 -115.1,51.2 -115.3,114.7c-0.2,63.5 51.2,115.1 114.7,115.3c63.5,0.2 115.1,-51.2 115.3,-114.7c0.2,-63.5 -51.2,-115.1 -114.7,-115.3zM319.7,245.4c41.2,-0.2 74.7,33.1 74.9,74.3c0.2,41.2 -33.1,74.7 -74.3,74.9c-41.2,0.2 -74.7,-33.1 -74.9,-74.3c-0.2,-41.2 33.1,-74.7 74.3,-74.9zM413.1,200.3c0,-14.8 12,-26.8 26.8,-26.8c14.8,0 26.8,12 26.8,26.8c0,14.8 -12,26.8 -26.8,26.8c-14.8,0 -26.8,-12 -26.8,-26.8zM542.8,227.5c-1.7,-35.9 -9.9,-67.7 -36.2,-93.9c-26.2,-26.2 -58,-34.4 -93.9,-36.2c-37,-2.1 -147.9,-2.1 -184.9,0c-35.8,1.7 -67.6,9.9 -93.9,36.1c-26.3,26.2 -34.4,58 -36.2,93.9c-2.1,37 -2.1,147.9 0,184.9c1.7,35.9 9.9,67.7 36.2,93.9c26.3,26.2 58,34.4 93.9,36.2c37,2.1 147.9,2.1 184.9,0c35.9,-1.7 67.7,-9.9 93.9,-36.2c26.2,-26.2 34.4,-58 36.2,-93.9c2.1,-37 2.1,-147.8 0,-184.8zM495,452c-7.8,19.6 -22.9,34.7 -42.6,42.6c-29.5,11.7 -99.5,9 -132.1,9c-32.6,0 -102.7,2.6 -132.1,-9c-19.6,-7.8 -34.7,-22.9 -42.6,-42.6c-11.7,-29.5 -9,-99.5 -9,-132.1c0,-32.6 -2.6,-102.7 9,-132.1c7.8,-19.6 22.9,-34.7 42.6,-42.6c29.5,-11.7 99.5,-9 132.1,-9c32.6,0 102.7,-2.6 132.1,9c19.6,7.8 34.7,22.9 42.6,42.6c11.7,29.5 9,99.5 9,132.1c0,32.6 2.7,102.7 -9,132.1z"></path></g></g></svg>

<svg xmlns="http://www.w3.org/2000/svg" viewBox="0 0 640 640"><!--!Font Awesome Free 7.2.0 by @fontawesome - https://fontawesome.com License - https://fontawesome.com/license/free Copyright 2026 Fonticons, Inc.--><path d="M320.3 205C256.8 204.8 205.2 256.2 205 319.7C204.8 383.2 256.2 434.8 319.7 435C383.2 435.2 434.8 383.8 435 320.3C435.2 256.8 383.8 205.2 320.3 205zM319.7 245.4C360.9 245.2 394.4 278.5 394.6 319.7C394.8 360.9 361.5 394.4 320.3 394.6C279.1 394.8 245.6 361.5 245.4 320.3C245.2 279.1 278.5 245.6 319.7 245.4zM413.1 200.3C413.1 185.5 425.1 173.5 439.9 173.5C454.7 173.5 466.7 185.5 466.7 200.3C466.7 215.1 454.7 227.1 439.9 227.1C425.1 227.1 413.1 215.1 413.1 200.3zM542.8 227.5C541.1 191.6 532.9 159.8 506.6 133.6C480.4 107.4 448.6 99.2 412.7 97.4C375.7 95.3 264.8 95.3 227.8 97.4C192 99.1 160.2 107.3 133.9 133.5C107.6 159.7 99.5 191.5 97.7 227.4C95.6 264.4 95.6 375.3 97.7 412.3C99.4 448.2 107.6 480 133.9 506.2C160.2 532.4 191.9 540.6 227.8 542.4C264.8 544.5 375.7 544.5 412.7 542.4C448.6 540.7 480.4 532.5 506.6 506.2C532.8 480 541 448.2 542.8 412.3C544.9 375.3 544.9 264.5 542.8 227.5zM495 452C487.2 471.6 472.1 486.7 452.4 494.6C422.9 506.3 352.9 503.6 320.3 503.6C287.7 503.6 217.6 506.2 188.2 494.6C168.6 486.8 153.5 471.7 145.6 452C133.9 422.5 136.6 352.5 136.6 319.9C136.6 287.3 134 217.2 145.6 187.8C153.4 168.2 168.5 153.1 188.2 145.2C217.7 133.5 287.7 136.2 320.3 136.2C352.9 136.2 423 133.6 452.4 145.2C472 153 487.1 168.1 495 187.8C506.7 217.3 504 287.3 504 319.9C504 352.5 506.7 422.6 495 452z"/></svg>
